style-guide/assets/xd-icons-message-tiny.svg

<svg viewBox="0 0 12 12" xmlns="http://www.w3.org/2000/svg">
  <path d="M3 2c-.551 0-1 .449-1 1v3c0 .551.449 1 1 1a1 1 0 0 1 1 1v.586l1.293-1.293A.997.997 0 0 1 6 7h3c.551 0 1-.449 1-1V3c0-.551-.449-1-1-1H3zm0 10a1.002 1.002 0 0 1-1-1V8.829A3.006 3.006 0 0 1 0 6V3c0-1.654 1.346-3 3-3h6c1.654 0 3 1.346 3 3v3c0 1.654-1.346 3-3 3H6.414l-2.707 2.707A1 1 0 0 1 3 12z" fill="#000" fill-rule="evenodd"/>
</svg>

<?xml version="1.0" encoding="UTF-8"?>
<svg width="12px" height="12px" viewBox="0 0 12 12" version="1.1" xmlns="http://www.w3.org/2000/svg" xmlns:xlink="http://www.w3.org/1999/xlink">
    <!-- Generator: Sketch 51.3 (57544) - http://www.bohemiancoding.com/sketch -->
    <title>bubble</title>
    <desc>Created with Sketch.</desc>
    <defs></defs>
    <g id="bubble" stroke="none" stroke-width="1" fill="none" fill-rule="evenodd">
        <path d="M3,2 C2.449,2 2,2.449 2,3 L2,6 C2,6.551 2.449,7 3,7 C3.552,7 4,7.448 4,8 L4,8.586 L5.293,7.293 C5.48,7.105 5.735,7 6,7 L9,7 C9.551,7 10,6.551 10,6 L10,3 C10,2.449 9.551,2 9,2 L3,2 Z M3,12 C2.871,12 2.741,11.975 2.617,11.924 C2.244,11.769 2,11.404 2,11 L2,8.829 C0.836,8.416 0,7.304 0,6 L0,3 C0,1.346 1.346,0 3,0 L9,0 C10.654,0 12,1.346 12,3 L12,6 C12,7.654 10.654,9 9,9 L6.414,9 L3.707,11.707 C3.516,11.898 3.26,12 3,12 Z" id="Fill-1" fill="#000000"></path>
    </g>
</svg>
